X:102
T:Mrs Spens Munro's Jig
R:jig
M:6/8
L:1/8
K:G
D |: G2G AGA | Bcd efg | G2G AGA | BGE E2D |
G2G AGA | Bcd efg | dcB AGA |1 BGG G2D :|2 BGG G2f |:
gfg efg | fdd def | gfg aga | bge e2f | gfg aga |
bge efg | dcB AGA |1 BGG G2f :|2 BGG G3 |]
